src/icons/terminal.svg

<svg width="24" height="24" viewBox="0 0 24 24" fill="none" xmlns="http://www.w3.org/2000/svg">
<path fill-rule="evenodd" clip-rule="evenodd" d="M3 1.5L1.5 3V21L3 22.5H21L22.5 21V3L21 1.5H3ZM3 21V3H21V21H3ZM8.65649 16.99L9.6937 18.0513L14.954 12.8078V11.8965L9.69398 6.63641L8.65856 7.69591L13.2486 12.3979L8.65649 16.99Z" fill="#C5C5C5"/>
</svg>

<svg width="24" height="24" xmlns="http://www.w3.org/2000/svg"><path fill-rule="evenodd" clip-rule="evenodd" d="M3 1.5L1.5 3v18L3 22.5h18l1.5-1.5V3L21 1.5H3zM3 21V3h18v18H3zm5.656-4.01l1.038 1.061 5.26-5.243v-.912l-5.26-5.26-1.035 1.06 4.59 4.702-4.593 4.592z"/></svg>
